dist/2.0.0/img/icon-chat.svg

<?xml version="1.0" encoding="UTF-8"?>
<svg width="36px" height="29px" viewBox="0 0 36 29" version="1.1" xmlns="http://www.w3.org/2000/svg" xmlns:xlink="http://www.w3.org/1999/xlink">
    <!-- Generator: Sketch 40.3 (33839) - http://www.bohemiancoding.com/sketch -->
    <title>icon-chat</title>
    <desc>Created with Sketch.</desc>
    <defs></defs>
    <g id="Templates" stroke="none" stroke-width="1" fill="none" fill-rule="evenodd">
        <g id="Landing" transform="translate(-689.000000, -24.000000)" fill="#000000">
            <g id="icon-chat" transform="translate(689.000000, 24.000000)">
                <path d="M14.142874,2.85711527 C20.4107386,2.85711527 25.7143164,6.39283377 25.7143164,10.5714102 C25.7143164,14.7499866 20.4107386,18.2857051 14.142874,18.2857051 C13.0982299,18.2857051 12.0736751,18.1852585 11.0692096,18.0044548 L10.0044762,17.8035617 L9.12054659,18.4263303 C8.71876039,18.7075806 8.29688489,18.9687416 7.87500939,19.2098133 L8.57813523,17.5223113 L6.62947219,16.39731 C4.05804055,14.9107011 2.57143164,12.7812342 2.57143164,10.5714102 C2.57143164,6.39283377 7.87500939,2.85711527 14.142874,2.85711527 L14.142874,2.85711527 Z M14.142874,0.285683632 C6.32813254,0.285683632 0,4.88613554 0,10.5714102 C0,13.8258783 2.0892882,16.7388282 5.34375637,18.6272234 C4.66071984,20.2946361 3.77679022,21.0781191 2.99330714,21.9620488 C2.77232473,22.2232098 2.51116371,22.4642815 2.59152095,22.8459784 C2.65178888,23.1874966 2.93303921,23.4285684 3.23437886,23.4285684 L3.29464678,23.4285684 C3.89732607,23.3482111 4.47991605,23.2477646 5.02232742,23.1071394 C7.05134769,22.5848174 8.9397428,21.720977 10.6071555,20.5357078 C11.7321568,20.7366009 12.9174261,20.8571367 14.142874,20.8571367 C21.9576155,20.8571367 28.285748,16.2566848 28.285748,10.5714102 C28.285748,4.88613554 21.9576155,0.285683632 14.142874,0.285683632 L14.142874,0.285683632 Z M30.6562865,23.7700866 C33.9107547,21.8816915 36.0000429,18.9888309 36.0000429,15.7142735 C36.0000429,12.3593587 33.7902189,9.38614091 30.3951255,7.51783511 C30.6964652,8.50221128 30.8571796,9.52676608 30.8571796,10.5714102 C30.8571796,14.1673966 29.0089632,17.4821327 25.6540484,19.9330285 C22.5402054,22.1830312 18.4620756,23.4285684 14.142874,23.4285684 C13.560284,23.4285684 12.9576047,23.3883897 12.3750148,23.3482111 C14.8861785,24.9955345 18.2210039,26 21.8571689,26 C23.0826168,26 24.2678861,25.8794641 25.3928874,25.678571 C27.0603001,26.8638403 28.9486952,27.7276806 30.9777155,28.2500027 C31.5201269,28.3906278 32.1027168,28.4910744 32.7053961,28.5714316 C33.0268251,28.6116103 33.3281647,28.3504492 33.408522,27.9888417 C33.4888792,27.6071448 33.2277182,27.3660731 33.0067358,27.104912 C32.2232527,26.2209824 31.3393231,25.4374993 30.6562865,23.7700866 L30.6562865,23.7700866 Z" id="fa-comments-o"></path>
            </g>
        </g>
    </g>
</svg>

<svg width="36" height="29" viewBox="0 0 36 29" xmlns="http://www.w3.org/2000/svg"><title>icon-chat</title><path d="M14.143 2.857c6.268 0 11.57 3.536 11.57 7.714 0 4.18-5.302 7.716-11.57 7.716-1.045 0-2.07-.1-3.074-.282l-1.066-.2-.883.622c-.4.282-.823.543-1.245.784l.703-1.688-1.95-1.125C4.06 14.91 2.572 12.78 2.572 10.57c0-4.177 5.305-7.713 11.573-7.713zm0-2.57C6.328.286 0 4.886 0 10.57c0 3.256 2.09 6.17 5.344 8.057-.683 1.668-1.567 2.45-2.35 3.335-.222.26-.483.502-.402.884.06.34.34.583.642.583h.06c.603-.082 1.186-.182 1.728-.323 2.03-.522 3.918-1.386 5.585-2.57 1.125.2 2.31.32 3.536.32 7.815 0 14.143-4.6 14.143-10.286 0-5.684-6.328-10.284-14.143-10.284zM30.656 23.77C33.91 21.882 36 18.99 36 15.714c0-3.355-2.21-6.328-5.605-8.196.3.984.462 2.01.462 3.053 0 3.597-1.848 6.912-5.203 9.363-3.114 2.25-7.192 3.496-11.51 3.496-.584 0-1.186-.042-1.77-.082C14.887 24.996 18.222 26 21.858 26c1.226 0 2.41-.12 3.536-.32 1.667 1.184 3.556 2.048 5.585 2.57.542.14 1.125.24 1.727.32.322.042.623-.22.704-.58.08-.383-.182-.624-.403-.885-.784-.884-1.668-1.668-2.35-3.335z" fill="#000" fill-rule="evenodd"/></svg>
